X:278
T:Paddy Fahey's
Z: id:dc-reel-258
M:C
L:1/8
K:D Minor
D2A,D FEFG|Ad^ce d2de|f2df edcA|dcAG FDEC|!
D2A,D FEFG|Ad^ce d2de|f2df edcA|dcAG FDD2:|!
Add2 ^fded|c2Gc EcGc|Add2 ^fded|c=Bcd edd2|!
a2^ga A=BcA|dcAG FDEC|A,DDE FEFG|Ad^ce d4:|!

